src/assets/verified_white.svg

<svg xmlns="http://www.w3.org/2000/svg" width="16" height="16" viewBox="0 0 16 16">
  <path fill="#fff" d="M5.82331983,14.8223666 L4.54259486,15.0281417 C4.15718795,15.0900653 3.78122933,14.8730055 3.64215331,14.5082715 L3.17999726,13.2962436 C3.09635683,13.0768923 2.92310766,12.9036432 2.70375635,12.8200027 L1.49172846,12.3578467 C1.12699447,12.2187707 0.909934662,11.842812 0.971858288,11.4574051 L1.17763336,10.1766802 C1.21487428,9.94489615 1.15146068,9.70823338 1.00331709,9.52612299 L0.184748166,8.51987017 C-0.0615827221,8.21705981 -0.0615827221,7.78294019 0.184748166,7.48012983 L1.00331709,6.47387701 C1.15146068,6.29176662 1.21487428,6.05510385 1.17763336,5.82331983 L0.971858288,4.54259486 C0.909934662,4.15718795 1.12699447,3.78122933 1.49172846,3.64215331 L2.70375635,3.17999726 C2.92310766,3.09635683 3.09635683,2.92310766 3.17999726,2.70375635 L3.64215331,1.49172846 C3.78122933,1.12699447 4.15718795,0.909934662 4.54259486,0.971858288 L5.82331983,1.17763336 C6.05510385,1.21487428 6.29176662,1.15146068 6.47387701,1.00331709 L7.48012983,0.184748166 C7.78294019,-0.0615827221 8.21705981,-0.0615827221 8.51987017,0.184748166 L9.52612299,1.00331709 C9.70823338,1.15146068 9.94489615,1.21487428 10.1766802,1.17763336 L11.4574051,0.971858288 C11.842812,0.909934662 12.2187707,1.12699447 12.3578467,1.49172846 L12.8200027,2.70375635 C12.9036432,2.92310766 13.0768923,3.09635683 13.2962436,3.17999726 L14.5082715,3.64215331 C14.8730055,3.78122933 15.0900653,4.15718795 15.0281417,4.54259486 L14.8223666,5.82331983 C14.7851257,6.05510385 14.8485393,6.29176662 14.9966829,6.47387701 L15.8152518,7.48012983 C16.0615827,7.78294019 16.0615827,8.21705981 15.8152518,8.51987017 L14.9966829,9.52612299 C14.8485393,9.70823338 14.7851257,9.94489615 14.8223666,10.1766802 L15.0281417,11.4574051 C15.0900653,11.842812 14.8730055,12.2187707 14.5082715,12.3578467 L13.2962436,12.8200027 C13.0768923,12.9036432 12.9036432,13.0768923 12.8200027,13.2962436 L12.3578467,14.5082715 C12.2187707,14.8730055 11.842812,15.0900653 11.4574051,15.0281417 L10.1766802,14.8223666 C9.94489615,14.7851257 9.70823338,14.8485393 9.52612299,14.9966829 L8.51987017,15.8152518 C8.21705981,16.0615827 7.78294019,16.0615827 7.48012983,15.8152518 L6.47387701,14.9966829 C6.29176662,14.8485393 6.05510385,14.7851257 5.82331983,14.8223666 L5.82331983,14.8223666 Z"/>
  <polyline fill="none" stroke="#5281b9" stroke-width="1.7" points="4.755 8.252 7 10.5 11.495 6.005"/>
</svg>

<svg xmlns="http://www.w3.org/2000/svg" width="16" height="16"><path fill="#fff" d="M5.82 14.82l-1.28.2a.82.82 0 0 1-.9-.51l-.46-1.21a.82.82 0 0 0-.48-.48l-1.2-.46a.82.82 0 0 1-.53-.9l.2-1.28A.82.82 0 0 0 1 9.53L.18 8.52a.82.82 0 0 1 0-1.04l.82-1a.82.82 0 0 0 .18-.66l-.2-1.28a.82.82 0 0 1 .51-.9l1.21-.46c.22-.08.4-.26.48-.48l.46-1.2a.82.82 0 0 1 .9-.53l1.28.2c.24.04.47-.02.65-.17L7.48.18a.82.82 0 0 1 1.04 0l1 .82c.19.15.42.21.66.18l1.28-.2c.38-.07.76.15.9.51l.46 1.21c.08.22.26.4.48.48l1.2.46c.37.14.59.52.53.9l-.2 1.28c-.04.24.02.47.17.65l.82 1.01c.24.3.24.74 0 1.04l-.82 1a.82.82 0 0 0-.18.66l.2 1.28a.82.82 0 0 1-.51.9l-1.21.46a.82.82 0 0 0-.48.48l-.46 1.2a.82.82 0 0 1-.9.53l-1.28-.2a.82.82 0 0 0-.65.17l-1.01.82a.82.82 0 0 1-1.04 0l-1-.82a.82.82 0 0 0-.66-.18z"/><path fill="none" stroke="#5281b9" stroke-width="1.7" d="M4.75 8.25L7 10.5 11.49 6"/></svg>
